X: 1
T: \^Ca\^cak
O: Makedonija
Z: John Chambers <jc@eddie.mit.edu> http://eddie.mit.edu/~jc/music/
M: 2/4
L: 1/16
P: Dm
K: Dm
|: d2d2 a2g2 | abc'b a2g2 :: d3e fede | f2f2 edec :: d2g2 fede | f2f2 edec :|
P: Am
K: Am
|: A2A2 e2d2 | efgf e2d2 :: A3B cBAB | c2c2 BABG :: A2d2 cBAB | c2c2 BABG :|
P: Em
K: Em
|: E2E2 B2A2 | Bcdc B2A2 :: E3F GFEF | G2G2 FEFD :: E2A2 GFEF | G2G2 FEFD :|
P: Bm
K: Bm
|: B2B2 f2e2 | fgag f2e2 :: B3c dcBc | d2d2 cBcA :: B2e2 dcBc | d2d2 cBcA :|
